public/brand/detecta-light.svg

<svg width="130" height="32" viewBox="0 0 130 32" fill="none" xmlns="http://www.w3.org/2000/svg">
<path d="M21.0944 19.5778L18.2565 22.4157L19.0178 23.177L21.8557 20.3391L21.0944 19.5778Z" fill="white"/>
<path d="M19.0187 1.88431L18.2574 2.64558L21.0954 5.48353L21.8566 4.72226L19.0187 1.88431Z" fill="white"/>
<path d="M29.053 1.88365L28.2918 2.64493L31.1297 5.48288L31.891 4.7216L29.053 1.88365Z" fill="white"/>
<path d="M23.2752 7.6644L24.5935 8.9827C25.1428 9.53565 25.5419 10.1838 25.7799 10.8723C25.9081 10.7185 26.0509 10.561 26.212 10.3999L26.8712 9.74072L24.0332 6.90273L23.2715 7.6644H23.2752Z" fill="white"/>
<path d="M25.7836 14.19C25.5419 14.8821 25.1464 15.5302 24.5971 16.0795L23.2788 17.3978L24.0405 18.1595L26.8785 15.3215L26.2194 14.6623C26.0582 14.5012 25.9154 14.3438 25.7873 14.19" fill="white"/>
<path d="M31.1324 19.5808L28.2945 22.4187L29.0557 23.18L31.8937 20.3421L31.1324 19.5808Z" fill="white"/>
<path d="M54.9801 7.68273V17.4051H56.3424C57.8401 17.4051 58.9899 16.9877 59.7956 16.1528C60.6012 15.3178 61.004 14.1167 61.004 12.5568C61.004 10.9968 60.6195 9.75538 59.8468 8.92412C59.0741 8.09652 57.9463 7.68273 56.4669 7.68273H54.9874H54.9801ZM51.2303 4.47855H56.3424C59.0009 4.47855 61.0846 5.19262 62.5896 6.61711C64.0947 8.0416 64.849 10.0117 64.849 12.5311C64.849 14.2046 64.4865 15.6474 63.7614 16.8668C63.0364 18.0863 62.0183 19.0127 60.7037 19.6499C59.3891 20.2871 57.8584 20.6057 56.1043 20.6057H51.2303V4.47855Z" fill="white"/>
<path d="M71.6492 10.5244C70.3419 10.5244 69.5802 11.3996 69.3568 13.1536H73.8464C73.8134 12.3114 73.6083 11.6596 73.2238 11.2055C72.843 10.7514 72.3157 10.5244 71.6456 10.5244M72.3926 20.9169C70.3529 20.9169 68.76 20.3347 67.6138 19.1738C66.4676 18.013 65.8927 16.4018 65.8927 14.3474C65.8927 13.0255 66.1453 11.872 66.658 10.8832C67.167 9.89452 67.8701 9.14016 68.76 8.61284C69.6498 8.08919 70.6715 7.82553 71.8177 7.82553C73.4912 7.82553 74.8021 8.37482 75.7579 9.4734C76.7137 10.572 77.1897 12.0844 77.1897 14.0105V15.5632H69.4008C69.767 17.2513 70.9278 18.0936 72.887 18.0936C74.0185 18.0936 75.1866 17.8153 76.3987 17.2587V20.0527C75.2049 20.6276 73.8683 20.9133 72.3853 20.9133" fill="white"/>
<path d="M84.0668 20.8437C82.602 20.8437 81.4961 20.4665 80.7454 19.7085C79.9947 18.9505 79.6212 17.8263 79.6212 16.3285V10.9052H77.7097V8.13314H79.6212V4.88501H83.2539V8.13314H85.8831V10.9052H83.2539V15.9953C83.2539 16.6654 83.3893 17.1598 83.6603 17.4784C83.9313 17.797 84.3524 17.9544 84.9274 17.9544C85.3741 17.9544 85.7879 17.8739 86.1688 17.7164V20.5105C85.4034 20.7338 84.704 20.8437 84.0668 20.8437Z" fill="white"/>
<path d="M92.6467 10.5244C91.3394 10.5244 90.5777 11.3996 90.3543 13.1536H94.8439C94.8109 12.3114 94.6058 11.6596 94.2213 11.2055C93.8405 10.7514 93.3132 10.5244 92.6467 10.5244ZM93.3864 20.9169C91.3467 20.9169 89.7538 20.3347 88.6076 19.1738C87.4614 18.013 86.8865 16.4018 86.8865 14.3474C86.8865 13.0255 87.1392 11.872 87.6519 10.8832C88.1609 9.89452 88.864 9.14016 89.7538 8.61284C90.6436 8.08919 91.6653 7.82553 92.8115 7.82553C94.485 7.82553 95.796 8.37482 96.7517 9.4734C97.7075 10.572 98.1835 12.0844 98.1835 14.0105V15.5632H90.3946C90.7608 17.2513 91.9217 18.0936 93.8808 18.0936C95.0123 18.0936 96.1805 17.8153 97.3926 17.2587V20.0527C96.1988 20.6276 94.8622 20.9133 93.3791 20.9133" fill="white"/>
<path d="M105.471 20.9169C104.163 20.9169 103.039 20.6459 102.091 20.104C101.142 19.562 100.417 18.8003 99.9156 17.8226C99.4139 16.8449 99.1649 15.6987 99.1649 14.395C99.1649 13.0914 99.4432 11.9159 99.9998 10.9199C100.556 9.92382 101.322 9.15847 102.292 8.62749C103.263 8.09285 104.361 7.82553 105.588 7.82553C106.734 7.82553 107.723 8.04159 108.55 8.47003V11.4069C107.785 10.9784 106.95 10.7624 106.042 10.7624C105.053 10.7624 104.273 11.0773 103.702 11.7072C103.127 12.337 102.841 13.2159 102.841 14.3474C102.841 15.479 103.131 16.3468 103.713 16.9987C104.295 17.6505 105.079 17.9801 106.068 17.9801C107.056 17.9801 107.946 17.7493 108.697 17.2879V20.2028C107.789 20.6789 106.716 20.9206 105.471 20.9206" fill="white"/>
<path d="M115.874 20.8437C114.41 20.8437 113.304 20.4665 112.553 19.7085C111.806 18.9505 111.429 17.8263 111.429 16.3285V10.9052H109.517V8.13314H111.429V4.88501H115.061V8.13314H117.691V10.9052H115.061V15.9953C115.061 16.6654 115.197 17.1598 115.468 17.4784C115.739 17.797 116.16 17.9544 116.735 17.9544C117.182 17.9544 117.595 17.8739 117.976 17.7164V20.5105C117.211 20.7338 116.511 20.8437 115.874 20.8437Z" fill="white"/>
<path d="M124.114 18.4305C124.736 18.4305 125.26 18.2071 125.692 17.7603C126.12 17.3136 126.336 16.7643 126.336 16.1125V15.0615C126.194 15.0469 126.047 15.0359 125.893 15.0359H125.428C124.458 15.0359 123.704 15.1897 123.173 15.5009C122.638 15.8122 122.371 16.2516 122.371 16.8266C122.371 17.3209 122.528 17.7091 122.85 17.9984C123.169 18.284 123.59 18.4268 124.117 18.4268M123.037 20.9169C121.796 20.9169 120.803 20.5837 120.064 19.9136C119.324 19.2434 118.954 18.3609 118.954 17.2623C118.954 15.8452 119.503 14.7429 120.602 13.9519C121.7 13.1646 123.253 12.7691 125.26 12.7691C125.436 12.7691 125.611 12.7728 125.783 12.7801C125.959 12.7874 126.135 12.7984 126.307 12.8167C126.227 12.099 125.97 11.5717 125.531 11.2275C125.091 10.8869 124.451 10.7148 123.608 10.7148C122.444 10.7148 121.268 11.0261 120.071 11.6449V8.80327C121.345 8.15145 122.722 7.82553 124.205 7.82553C125.974 7.82553 127.34 8.29426 128.303 9.23537C129.266 10.1765 129.749 11.5204 129.749 13.2745V20.6093H126.787L126.596 19.2947C126.23 19.8037 125.732 20.2028 125.102 20.4885C124.472 20.7741 123.784 20.9169 123.037 20.9169Z" fill="white"/>
<path d="M38.9922 10.4035C40.5595 11.9708 40.5595 13.0951 38.9922 14.6624L29.7641 23.8904C31.3314 25.4577 33.8728 25.4577 35.4438 23.8904L43.9614 15.3728C45.5287 13.8055 45.5287 11.2641 43.9614 9.69312L35.4438 1.17548C33.8765 -0.391826 31.3351 -0.391826 29.7641 1.17548L38.9922 10.4035Z" fill="white"/>
<path d="M28.9548 10.4035C30.5222 11.9708 30.5222 13.0951 28.9548 14.6624L19.7268 23.8904C21.2941 25.4577 23.8355 25.4577 25.4064 23.8904L33.9241 15.3728C35.4914 13.8055 35.4914 11.2641 33.9241 9.69312L25.4064 1.17548C23.8391 -0.391826 21.2978 -0.391826 19.7268 1.17548L28.9548 10.4035Z" fill="white"/>
<path d="M18.9175 10.4035C20.4848 11.9708 20.4848 13.0951 18.9175 14.6624L9.68944 23.8904C11.2567 25.4577 13.7981 25.4577 15.3691 23.8904L23.8867 15.3728C25.454 13.8055 25.454 11.2641 23.8867 9.69312L15.3691 1.17548C13.8018 -0.391826 11.2604 -0.391826 9.68944 1.17548L18.9175 10.4035Z" fill="white"/>
<path d="M11.8207 20.3383L6.14105 14.6587C4.57375 13.0914 4.57375 11.9672 6.14105 10.3999L11.8207 4.72023L8.9827 1.88223L1.17548 9.68945C-0.391826 11.2568 -0.391826 13.7981 1.17548 15.3691L8.9827 23.1763L11.8207 20.3383Z" fill="white"/>
<path d="M16.8375 9.7444L13.9995 6.9064L11.2092 9.69312C9.64186 11.2604 9.64186 13.8018 11.2092 15.3728L13.9995 18.1632L16.8375 15.3252L16.1784 14.666C14.6111 13.0987 14.6111 11.9745 16.1784 10.4072L16.8375 9.74805V9.7444Z" fill="white"/>
<path d="M108.773 25.0093H109.386L111.875 31.7853H111.262L110.55 29.7976H107.599L106.896 31.7853H106.294L108.773 25.0093ZM107.78 29.2858H110.369L109.074 25.6316L107.78 29.2858Z" fill="white"/>
<path d="M112.648 24.3065H113.231V31.7853H112.648V24.3065Z" fill="white"/>
<path d="M116.534 31.9157C115.818 31.9157 115.251 31.6718 114.832 31.183C114.414 30.6941 114.205 30.0316 114.205 29.1954C114.205 28.6463 114.297 28.1694 114.481 27.7648C114.665 27.3604 114.921 27.0501 115.249 26.8363C115.577 26.6224 115.954 26.5151 116.383 26.5151C116.998 26.5151 117.482 26.7359 117.833 27.1776C118.185 27.6193 118.36 28.2285 118.36 29.0046V29.3559H114.777C114.81 29.9913 114.985 30.4883 115.299 30.8466C115.613 31.2051 116.042 31.3838 116.584 31.3838C117.126 31.3838 117.63 31.2301 118.059 30.922V31.474C117.624 31.7681 117.116 31.9157 116.534 31.9157ZM116.353 27.0271C115.891 27.0271 115.525 27.1876 115.254 27.5088C114.983 27.83 114.827 28.2849 114.787 28.8741H117.808C117.795 28.2918 117.66 27.8381 117.407 27.5139C117.153 27.1897 116.801 27.0271 116.353 27.0271Z" fill="white"/>
<path d="M119.276 26.6455H119.788L119.828 27.4385C119.949 27.1575 120.125 26.9388 120.355 26.781C120.586 26.6235 120.845 26.5451 121.133 26.5451C121.307 26.5451 121.461 26.5682 121.595 26.6154V27.1475C121.461 27.1003 121.304 27.0772 121.123 27.0772C120.742 27.0772 120.436 27.2318 120.205 27.5389C119.974 27.8472 119.859 28.2548 119.859 28.7636V31.7853H119.276V26.6455Z" fill="white"/>
<path d="M124.294 31.8856C123.859 31.8856 123.529 31.7571 123.305 31.4992C123.081 31.2413 122.969 30.8688 122.969 30.3799V27.1274H122.106V26.6455H122.969V25.2101H123.551V26.6455H124.876V27.1274H123.551V30.3598C123.551 30.7142 123.618 30.9741 123.752 31.1377C123.885 31.3014 124.093 31.3838 124.374 31.3838C124.582 31.3838 124.805 31.3235 125.046 31.203V31.705C124.826 31.8255 124.575 31.8856 124.294 31.8856Z" fill="white"/>
<path d="M127.301 31.9157C126.812 31.9157 126.42 31.7823 126.126 31.5142C125.832 31.2462 125.685 30.8887 125.685 30.44C125.685 29.8709 125.923 29.4363 126.402 29.135C126.881 28.8339 127.575 28.6834 128.485 28.6834H128.706C128.779 28.6834 128.849 28.6874 128.916 28.6933V28.6533C128.916 28.1042 128.806 27.6977 128.585 27.4336C128.364 27.1696 128.026 27.037 127.572 27.037C127.05 27.037 126.555 27.1948 126.086 27.5088V26.9667C126.548 26.6656 127.06 26.5151 127.622 26.5151C128.224 26.5151 128.688 26.6938 129.012 27.0521C129.336 27.4105 129.499 27.9234 129.499 28.593V31.7853H128.987L128.947 31.0323C128.793 31.3065 128.567 31.5223 128.269 31.6798C127.971 31.8374 127.649 31.9157 127.301 31.9157ZM127.391 31.434C127.679 31.434 127.94 31.3607 128.174 31.2131C128.408 31.0655 128.59 30.8788 128.721 30.6509C128.851 30.4231 128.916 30.1791 128.916 29.9181V29.1753C128.796 29.1683 128.625 29.1653 128.405 29.1653C127.709 29.1653 127.178 29.2686 126.814 29.4764C126.449 29.6843 126.267 29.9884 126.267 30.3899C126.267 30.7041 126.369 30.9571 126.573 31.1479C126.777 31.3385 127.05 31.434 127.391 31.434Z" fill="white"/>
<path d="M101.854 28.1504H51.2254V28.5921H101.854V28.1504Z" fill="white"/>
</svg>

<svg xmlns="http://www.w3.org/2000/svg" width="130" height="32" fill="none" viewBox="0 0 130 32"><path fill="#fff" d="m21.094 19.578-2.838 2.838.762.761 2.838-2.838zM19.019 1.884l-.762.762 2.838 2.838.762-.762zM29.053 1.884l-.761.76 2.838 2.839.761-.761zM23.275 7.664l1.319 1.319c.549.553.948 1.2 1.186 1.89q.19-.231.432-.473l.66-.66-2.839-2.837-.762.761zM25.784 14.19a5 5 0 0 1-1.187 1.89l-1.318 1.318.762.762 2.837-2.838-.659-.66a7 7 0 0 1-.432-.472M31.132 19.58l-2.838 2.839.762.761 2.838-2.838zM54.98 7.683v9.722h1.362q2.246 0 3.454-1.252 1.208-1.254 1.208-3.596c0-1.56-.384-2.802-1.157-3.633q-1.16-1.24-3.38-1.241H54.98m-3.75-3.204h5.112q3.99.001 6.248 2.138t2.259 5.914c0 1.674-.362 3.116-1.088 4.336q-1.087 1.829-3.057 2.783-1.97.956-4.6.956H51.23zM71.65 10.524q-1.96 0-2.293 2.63h4.49c-.034-.843-.239-1.494-.623-1.948q-.572-.682-1.578-.682m.747 10.393q-3.06 0-4.78-1.743-1.719-1.743-1.72-4.827c0-1.322.252-2.475.765-3.464q.765-1.48 2.102-2.27 1.336-.786 3.058-.787 2.508 0 3.94 1.647 1.433 1.648 1.432 4.538v1.552H69.4q.55 2.531 3.487 2.53c1.132 0 2.3-.278 3.512-.834v2.794q-1.79.861-4.014.86M84.067 20.844q-2.196 0-3.322-1.136-1.124-1.134-1.124-3.38v-5.423H77.71V8.133h1.911V4.885h3.633v3.248h2.63v2.772h-2.63v5.09q0 1.006.406 1.483.405.477 1.267.476.67 0 1.242-.238v2.794q-1.148.335-2.102.334M92.647 10.524q-1.96 0-2.293 2.63h4.49c-.033-.843-.238-1.494-.623-1.948-.38-.455-.908-.682-1.574-.682m.74 10.393q-3.06 0-4.78-1.743t-1.72-4.827c0-1.322.252-2.475.765-3.464q.765-1.48 2.102-2.27 1.336-.786 3.057-.787 2.51 0 3.94 1.647 1.433 1.648 1.432 4.538v1.552h-7.788q.548 2.531 3.486 2.53 1.695 0 3.512-.834v2.794q-1.79.861-4.014.86M105.471 20.917c-1.308 0-2.432-.271-3.38-.813a5.4 5.4 0 0 1-2.175-2.281c-.502-.978-.751-2.124-.751-3.428s.278-2.48.835-3.475a5.75 5.75 0 0 1 2.292-2.293q1.456-.801 3.296-.801 1.72.001 2.962.644v2.937a5.04 5.04 0 0 0-2.508-.645q-1.484 0-2.34.945-.862.944-.861 2.64c0 1.132.29 2 .872 2.652q.872.98 2.355.981c.988 0 1.878-.23 2.629-.692v2.915q-1.36.716-3.226.718M115.874 20.844q-2.195 0-3.321-1.136-1.122-1.134-1.124-3.38v-5.423h-1.912V8.133h1.912V4.885h3.632v3.248h2.63v2.772h-2.63v5.09q0 1.006.407 1.483.405.477 1.267.476.67 0 1.241-.238v2.794q-1.147.335-2.102.334M124.114 18.43q.931 0 1.578-.67.643-.67.644-1.648v-1.05a4 4 0 0 0-.443-.026h-.465q-1.457 0-2.255.465c-.535.311-.802.75-.802 1.326 0 .494.157.882.479 1.171q.478.429 1.267.429m-1.08 2.49q-1.863.001-2.973-1.003t-1.11-2.652q0-2.125 1.648-3.31 1.647-1.182 4.658-1.183.264 0 .523.011.265.01.524.037c-.08-.718-.337-1.245-.776-1.59q-.66-.511-1.923-.512c-1.164 0-2.34.311-3.537.93V8.803a8.94 8.94 0 0 1 4.134-.977q2.654-.001 4.098 1.41 1.445 1.409 1.446 4.038v7.335h-2.962l-.191-1.314q-.549.765-1.494 1.193a4.9 4.9 0 0 1-2.065.429"/><path fill="#fff" d="M38.992 10.404c1.568 1.567 1.568 2.691 0 4.258l-9.228 9.228a4.02 4.02 0 0 0 5.68 0l8.517-8.517a4.02 4.02 0 0 0 0-5.68l-8.517-8.518a4.02 4.02 0 0 0-5.68 0z"/><path fill="#fff" d="M28.955 10.404c1.567 1.567 1.567 2.691 0 4.258l-9.228 9.228a4.02 4.02 0 0 0 5.68 0l8.517-8.517a4.02 4.02 0 0 0 0-5.68l-8.518-8.518a4.02 4.02 0 0 0-5.68 0z"/><path fill="#fff" d="M18.918 10.404c1.567 1.567 1.567 2.691 0 4.258L9.689 23.89a4.02 4.02 0 0 0 5.68 0l8.518-8.517a4.02 4.02 0 0 0 0-5.68l-8.518-8.518a4.02 4.02 0 0 0-5.68 0z"/><path fill="#fff" d="m11.82 20.338-5.679-5.68c-1.567-1.567-1.567-2.69 0-4.258l5.68-5.68-2.838-2.838L1.175 9.69a4.02 4.02 0 0 0 0 5.68l7.808 7.807z"/><path fill="#fff" d="m16.838 9.744-2.839-2.838-2.79 2.787a4.02 4.02 0 0 0 0 5.68l2.79 2.79 2.838-2.838-.659-.659c-1.567-1.567-1.567-2.691 0-4.259l.66-.659zM108.773 25.01h.613l2.489 6.775h-.613l-.712-1.987h-2.951l-.703 1.987h-.602zm-.993 4.276h2.589l-1.295-3.654zM112.648 24.307h.583v7.478h-.583zM116.534 31.916q-1.074 0-1.702-.733t-.627-1.988q0-.824.276-1.43.276-.608.768-.929a2.03 2.03 0 0 1 1.134-.32q.923 0 1.45.662.528.662.527 1.827v.35h-3.583q.05.954.522 1.492.471.537 1.285.537a2.5 2.5 0 0 0 1.475-.462v.552q-.652.442-1.525.442m-.181-4.889q-.693 0-1.099.482-.407.481-.467 1.365h3.021q-.02-.874-.401-1.36-.382-.486-1.054-.487M119.276 26.646h.512l.04.793q.182-.422.527-.658t.778-.236q.261 0 .462.07v.533a1.4 1.4 0 0 0-.472-.07q-.572 0-.918.46-.346.464-.346 1.226v3.021h-.583zM124.294 31.886q-.653 0-.989-.387-.336-.386-.336-1.12v-3.252h-.863v-.482h.863V25.21h.582v1.435h1.325v.482h-1.325v3.233q0 .532.201.778.2.245.622.246.311 0 .672-.181v.502q-.33.18-.752.18M127.301 31.916q-.734 0-1.175-.402-.441-.401-.441-1.074 0-.854.717-1.305.718-.452 2.083-.452h.221q.11 0 .21.01v-.04q0-.823-.331-1.22-.332-.395-1.013-.396-.783 0-1.486.472v-.542a2.75 2.75 0 0 1 1.536-.452q.903 0 1.39.537t.487 1.541v3.192h-.512l-.04-.753q-.231.411-.678.648-.447.236-.968.236m.09-.482q.432 0 .783-.22.35-.222.547-.563.195-.342.195-.733v-.743a10 10 0 0 0-.511-.01q-1.044 0-1.591.311-.547.312-.547.914 0 .471.306.758.306.286.818.286M101.854 28.15H51.225v.442h50.629z"/></svg>
